assets/1. F-P/Hammer/Color/Hammer-color.svg

<svg width="100%" height="100%" viewBox="0 0 32 32" fill="none" xmlns="http://www.w3.org/2000/svg">
<g filter="url(#filter0_i_18_23767)">
<path d="M12.2013 8.46094L28.5626 24.8223C29.7093 25.9689 29.7093 27.828 28.5626 28.9746C27.416 30.1212 25.5569 30.1212 24.4103 28.9746L8.04895 12.6133L12.2013 8.46094Z" fill="#A3796E"/>
<path d="M12.2013 8.46094L28.5626 24.8223C29.7093 25.9689 29.7093 27.828 28.5626 28.9746C27.416 30.1212 25.5569 30.1212 24.4103 28.9746L8.04895 12.6133L12.2013 8.46094Z" fill="url(#paint0_linear_18_23767)"/>
<path d="M12.2013 8.46094L28.5626 24.8223C29.7093 25.9689 29.7093 27.828 28.5626 28.9746C27.416 30.1212 25.5569 30.1212 24.4103 28.9746L8.04895 12.6133L12.2013 8.46094Z" fill="url(#paint1_linear_18_23767)"/>
</g>
<g filter="url(#filter1_f_18_23767)">
<path d="M12.1618 11.7184C11.8628 11.4194 11.8628 10.9346 12.1618 10.6356C12.4608 10.3366 12.9456 10.3366 13.2446 10.6356L28.1411 25.5321C28.4401 25.8311 28.4401 26.3159 28.1411 26.6149C27.8421 26.9139 27.3573 26.9139 27.0583 26.6149L12.1618 11.7184Z" fill="url(#paint2_linear_18_23767)"/>
<path d="M12.1618 11.7184C11.8628 11.4194 11.8628 10.9346 12.1618 10.6356C12.4608 10.3366 12.9456 10.3366 13.2446 10.6356L28.1411 25.5321C28.4401 25.8311 28.4401 26.3159 28.1411 26.6149C27.8421 26.9139 27.3573 26.9139 27.0583 26.6149L12.1618 11.7184Z" fill="url(#paint3_radial_18_23767)"/>
</g>
<g filter="url(#filter2_i_18_23767)">
<path d="M2.74036 11.2812C3.45391 10.5677 4.31124 10.7732 5.2346 11.2311C5.41085 11.3186 5.56905 11.438 5.70817 11.5772L8.55114 14.4201C8.65088 14.5199 8.74138 14.6291 8.81206 14.7511C9.37992 15.7319 9.41596 16.715 8.84192 17.289L7.73747 18.3623C7.63984 18.4599 7.48155 18.4599 7.38392 18.3623L1.70622 12.6846C1.60859 12.587 1.60859 12.4287 1.70622 12.331L2.74036 11.2812Z" fill="#ADA9B9"/>
<path d="M2.74036 11.2812C3.45391 10.5677 4.31124 10.7732 5.2346 11.2311C5.41085 11.3186 5.56905 11.438 5.70817 11.5772L8.55114 14.4201C8.65088 14.5199 8.74138 14.6291 8.81206 14.7511C9.37992 15.7319 9.41596 16.715 8.84192 17.289L7.73747 18.3623C7.63984 18.4599 7.48155 18.4599 7.38392 18.3623L1.70622 12.6846C1.60859 12.587 1.60859 12.4287 1.70622 12.331L2.74036 11.2812Z" fill="url(#paint4_radial_18_23767)"/>
<path d="M2.74036 11.2812C3.45391 10.5677 4.31124 10.7732 5.2346 11.2311C5.41085 11.3186 5.56905 11.438 5.70817 11.5772L8.55114 14.4201C8.65088 14.5199 8.74138 14.6291 8.81206 14.7511C9.37992 15.7319 9.41596 16.715 8.84192 17.289L7.73747 18.3623C7.63984 18.4599 7.48155 18.4599 7.38392 18.3623L1.70622 12.6846C1.60859 12.587 1.60859 12.4287 1.70622 12.331L2.74036 11.2812Z" fill="url(#paint5_radial_18_23767)"/>
<path d="M2.74036 11.2812C3.45391 10.5677 4.31124 10.7732 5.2346 11.2311C5.41085 11.3186 5.56905 11.438 5.70817 11.5772L8.55114 14.4201C8.65088 14.5199 8.74138 14.6291 8.81206 14.7511C9.37992 15.7319 9.41596 16.715 8.84192 17.289L7.73747 18.3623C7.63984 18.4599 7.48155 18.4599 7.38392 18.3623L1.70622 12.6846C1.60859 12.587 1.60859 12.4287 1.70622 12.331L2.74036 11.2812Z" fill="url(#paint6_radial_18_23767)"/>
<path d="M2.74036 11.2812C3.45391 10.5677 4.31124 10.7732 5.2346 11.2311C5.41085 11.3186 5.56905 11.438 5.70817 11.5772L8.55114 14.4201C8.65088 14.5199 8.74138 14.6291 8.81206 14.7511C9.37992 15.7319 9.41596 16.715 8.84192 17.289L7.73747 18.3623C7.63984 18.4599 7.48155 18.4599 7.38392 18.3623L1.70622 12.6846C1.60859 12.587 1.60859 12.4287 1.70622 12.331L2.74036 11.2812Z" fill="url(#paint7_radial_18_23767)"/>
</g>
<g filter="url(#filter3_i_18_23767)">
<path d="M13.1601 7.16728C12.9656 7.36267 12.9659 7.67867 13.1609 7.87364L15.3013 10.014C15.4575 10.1702 15.4575 10.4235 15.3013 10.5797L10.156 15.725C9.99983 15.8812 9.74654 15.8812 9.59035 15.725L4.95039 11.085C4.65749 10.7921 4.65749 10.3173 4.95039 10.0243L11.5072 3.46761C11.9227 3.05209 12.5 2.84033 13.0856 2.8886L16.2338 3.14803C16.573 3.17599 16.7245 3.58776 16.4843 3.82891L13.1601 7.16728Z" fill="#CAC3DA"/>
</g>
<path d="M13.1601 7.16728C12.9656 7.36267 12.9659 7.67867 13.1609 7.87364L15.3013 10.014C15.4575 10.1702 15.4575 10.4235 15.3013 10.5797L10.156 15.725C9.99983 15.8812 9.74654 15.8812 9.59035 15.725L4.95039 11.085C4.65749 10.7921 4.65749 10.3173 4.95039 10.0243L11.5072 3.46761C11.9227 3.05209 12.5 2.84033 13.0856 2.8886L16.2338 3.14803C16.573 3.17599 16.7245 3.58776 16.4843 3.82891L13.1601 7.16728Z" fill="url(#paint8_linear_18_23767)"/>
<path d="M13.1601 7.16728C12.9656 7.36267 12.9659 7.67867 13.1609 7.87364L15.3013 10.014C15.4575 10.1702 15.4575 10.4235 15.3013 10.5797L10.156 15.725C9.99983 15.8812 9.74654 15.8812 9.59035 15.725L4.95039 11.085C4.65749 10.7921 4.65749 10.3173 4.95039 10.0243L11.5072 3.46761C11.9227 3.05209 12.5 2.84033 13.0856 2.8886L16.2338 3.14803C16.573 3.17599 16.7245 3.58776 16.4843 3.82891L13.1601 7.16728Z" fill="url(#paint9_radial_18_23767)"/>
<path d="M13.1601 7.16728C12.9656 7.36267 12.9659 7.67867 13.1609 7.87364L15.3013 10.014C15.4575 10.1702 15.4575 10.4235 15.3013 10.5797L10.156 15.725C9.99983 15.8812 9.74654 15.8812 9.59035 15.725L4.95039 11.085C4.65749 10.7921 4.65749 10.3173 4.95039 10.0243L11.5072 3.46761C11.9227 3.05209 12.5 2.84033 13.0856 2.8886L16.2338 3.14803C16.573 3.17599 16.7245 3.58776 16.4843 3.82891L13.1601 7.16728Z" fill="url(#paint10_radial_18_23767)"/>
<g filter="url(#filter4_f_18_23767)">
<rect x="6.92834" y="12.3901" width="7.22504" height="4.2784" transform="rotate(-45 6.92834 12.3901)" fill="url(#paint11_linear_18_23767)"/>
<rect x="6.92834" y="12.3901" width="7.22504" height="4.2784" transform="rotate(-45 6.92834 12.3901)" fill="url(#paint12_linear_18_23767)"/>
</g>
<defs>
<filter id="filter0_i_18_23767" x="8.04895" y="8.31094" width="21.3737" height="21.5235" filterUnits="userSpaceOnUse" color-interpolation-filters="sRGB">
<feFlood flood-opacity="0" result="BackgroundImageFix"/>
<feBlend mode="normal" in="SourceGraphic" in2="BackgroundImageFix" result="shape"/>
<feColorMatrix in="SourceAlpha" type="matrix" values="0 0 0 0 0 0 0 0 0 0 0 0 0 0 0 0 0 0 127 0" result="hardAlpha"/>
<feOffset dy="-0.15"/>
<feGaussianBlur stdDeviation="0.15"/>
<feComposite in2="hardAlpha" operator="arithmetic" k2="-1" k3="1"/>
<feColorMatrix type="matrix" values="0 0 0 0 0.643137 0 0 0 0 0.384314 0 0 0 0 0.737255 0 0 0 1 0"/>
<feBlend mode="normal" in2="shape" result="effect1_innerShadow_18_23767"/>
</filter>
<filter id="filter1_f_18_23767" x="10.9376" y="9.41138" width="18.4278" height="18.4277" filterUnits="userSpaceOnUse" color-interpolation-filters="sRGB">
<feFlood flood-opacity="0" result="BackgroundImageFix"/>
<feBlend mode="normal" in="SourceGraphic" in2="BackgroundImageFix" result="shape"/>
<feGaussianBlur stdDeviation="0.5" result="effect1_foregroundBlur_18_23767"/>
</filter>
<filter id="filter2_i_18_23767" x="1.633" y="10.6649" width="7.77256" height="7.77061" filterUnits="userSpaceOnUse" color-interpolation-filters="sRGB">
<feFlood flood-opacity="0" result="BackgroundImageFix"/>
<feBlend mode="normal" in="SourceGraphic" in2="BackgroundImageFix" result="shape"/>
<feColorMatrix in="SourceAlpha" type="matrix" values="0 0 0 0 0 0 0 0 0 0 0 0 0 0 0 0 0 0 127 0" result="hardAlpha"/>
<feOffset dx="0.15" dy="-0.15"/>
<feGaussianBlur stdDeviation="0.375"/>
<feComposite in2="hardAlpha" operator="arithmetic" k2="-1" k3="1"/>
<feColorMatrix type="matrix" values="0 0 0 0 0.552941 0 0 0 0 0.541176 0 0 0 0 0.592157 0 0 0 1 0"/>
<feBlend mode="normal" in2="shape" result="effect1_innerShadow_18_23767"/>
</filter>
<filter id="filter3_i_18_23767" x="4.73071" y="2.63184" width="12.1208" height="13.2102" filterUnits="userSpaceOnUse" color-interpolation-filters="sRGB">
<feFlood flood-opacity="0" result="BackgroundImageFix"/>
<feBlend mode="normal" in="SourceGraphic" in2="BackgroundImageFix" result="shape"/>
<feColorMatrix in="SourceAlpha" type="matrix" values="0 0 0 0 0 0 0 0 0 0 0 0 0 0 0 0 0 0 127 0" result="hardAlpha"/>
<feOffset dx="0.25" dy="-0.25"/>
<feGaussianBlur stdDeviation="0.5"/>
<feComposite in2="hardAlpha" operator="arithmetic" k2="-1" k3="1"/>
<feColorMatrix type="matrix" values="0 0 0 0 0.537255 0 0 0 0 0.52549 0 0 0 0 0.596078 0 0 0 1 0"/>
<feBlend mode="normal" in2="shape" result="effect1_innerShadow_18_23767"/>
</filter>
<filter id="filter4_f_18_23767" x="5.92834" y="6.28125" width="10.1342" height="10.1343" filterUnits="userSpaceOnUse" color-interpolation-filters="sRGB">
<feFlood flood-opacity="0" result="BackgroundImageFix"/>
<feBlend mode="normal" in="SourceGraphic" in2="BackgroundImageFix" result="shape"/>
<feGaussianBlur stdDeviation="0.5" result="effect1_foregroundBlur_18_23767"/>
</filter>
<linearGradient id="paint0_linear_18_23767" x1="30.506" y1="27.6875" x2="26.1622" y2="23.3437" gradientUnits="userSpaceOnUse">
<stop offset="0.064748" stop-color="#7F494F"/>
<stop offset="1" stop-color="#7F494F" stop-opacity="0"/>
</linearGradient>
<linearGradient id="paint1_linear_18_23767" x1="17.881" y1="21.4062" x2="21.4435" y2="17.7187" gradientUnits="userSpaceOnUse">
<stop offset="0.0577084" stop-color="#733464"/>
<stop offset="1" stop-color="#7C425A" stop-opacity="0"/>
</linearGradient>
<linearGradient id="paint2_linear_18_23767" x1="17.8497" y1="17.125" x2="27.0372" y2="26.1563" gradientUnits="userSpaceOnUse">
<stop stop-color="#A77975"/>
<stop offset="1" stop-color="#8F6969"/>
</linearGradient>
<radialGradient id="paint3_radial_18_23767" cx="0" cy="0" r="1" gradientUnits="userSpaceOnUse" gradientTransform="translate(28.6622 26.4062) rotate(-144.273) scale(2.19419 2.80882)">
<stop stop-color="#9B7775"/>
<stop offset="1" stop-color="#9B7775" stop-opacity="0"/>
</radialGradient>
<radialGradient id="paint4_radial_18_23767" cx="0" cy="0" r="1" gradientUnits="userSpaceOnUse" gradientTransform="translate(5.44427 16.3339) rotate(-45.6098) scale(3.0824 3.08321)">
<stop stop-color="#CABFDD"/>
<stop offset="1" stop-color="#CABFDD" stop-opacity="0"/>
</radialGradient>
<radialGradient id="paint5_radial_18_23767" cx="0" cy="0" r="1" gradientUnits="userSpaceOnUse" gradientTransform="translate(4.72473 15.6875) rotate(-47.332) scale(4.8875 11.3328)">
<stop offset="0.599497" stop-color="#BBB9C3" stop-opacity="0"/>
<stop offset="0.775721" stop-color="#8C889A"/>
</radialGradient>
<radialGradient id="paint6_radial_18_23767" cx="0" cy="0" r="1" gradientUnits="userSpaceOnUse" gradientTransform="translate(6.53723 13.6875) rotate(131.009) scale(1.90497 5.84349)">
<stop stop-color="#DED9EA"/>
<stop offset="1" stop-color="#CAC1DC" stop-opacity="0"/>
</radialGradient>
<radialGradient id="paint7_radial_18_23767" cx="0" cy="0" r="1" gradientUnits="userSpaceOnUse" gradientTransform="translate(7.72473 13.5) rotate(-177.818) scale(6.56726 8.47243)">
<stop offset="0.547233" stop-color="#8F8C98" stop-opacity="0"/>
<stop offset="1" stop-color="#8F8C98"/>
</radialGradient>
<linearGradient id="paint8_linear_18_23767" x1="14.4029" y1="3.08556" x2="14.3057" y2="4.31646" gradientUnits="userSpaceOnUse">
<stop stop-color="#CCCCD3"/>
<stop offset="1" stop-color="#CCCCD3" stop-opacity="0"/>
</linearGradient>
<radialGradient id="paint9_radial_18_23767" cx="0" cy="0" r="1" gradientUnits="userSpaceOnUse" gradientTransform="translate(16.0225 3.70101) rotate(136.759) scale(1.67855 0.33786)">
<stop stop-color="#DFDDE8"/>
<stop offset="1" stop-color="#CCC9D6" stop-opacity="0"/>
</radialGradient>
<radialGradient id="paint10_radial_18_23767" cx="0" cy="0" r="1" gradientUnits="userSpaceOnUse" gradientTransform="translate(15.7633 8.75417) rotate(145.582) scale(4.24076 3.38815)">
<stop offset="0.200856" stop-color="#ECEAF4"/>
<stop offset="1" stop-color="#ECEAF4" stop-opacity="0"/>
</radialGradient>
<linearGradient id="paint11_linear_18_23767" x1="14.1106" y1="15.3876" x2="6.85923" y2="15.8195" gradientUnits="userSpaceOnUse">
<stop stop-color="#EDEAF7"/>
<stop offset="1" stop-color="#A89ABE"/>
</linearGradient>
<linearGradient id="paint12_linear_18_23767" x1="10.5409" y1="12.3901" x2="10.5629" y2="13.6718" gradientUnits="userSpaceOnUse">
<stop offset="0.111441" stop-color="#B2ADC0"/>
<stop offset="1" stop-color="#B2ADC0" stop-opacity="0"/>
</linearGradient>
</defs>
</svg>

<svg width="100%" height="100%" viewBox="0 0 32 32" xmlns="http://www.w3.org/2000/svg"><g filter="url(#a)"><path fill="#A3796E" d="m12.201 8.46 16.362 16.362a2.936 2.936 0 1 1-4.153 4.153L8.05 12.613z"/><path fill="url(#b)" d="m12.201 8.46 16.362 16.362a2.936 2.936 0 1 1-4.153 4.153L8.05 12.613z"/><path fill="url(#c)" d="m12.201 8.46 16.362 16.362a2.936 2.936 0 1 1-4.153 4.153L8.05 12.613z"/></g><g filter="url(#d)"><path fill="url(#e)" d="M12.162 11.718a.766.766 0 0 1 1.083-1.082L28.14 25.532a.766.766 0 0 1-1.083 1.083z"/><path fill="url(#f)" d="M12.162 11.718a.766.766 0 0 1 1.083-1.082L28.14 25.532a.766.766 0 0 1-1.083 1.083z"/></g><g filter="url(#g)"><path fill="#ADA9B9" d="M2.74 11.281c.714-.713 1.571-.508 2.495-.05.176.088.334.207.473.346l2.843 2.843c.1.1.19.21.261.331.568.98.604 1.964.03 2.538l-1.105 1.073a.25.25 0 0 1-.353 0l-5.678-5.677a.25.25 0 0 1 0-.354z"/><path fill="url(#h)" d="M2.74 11.281c.714-.713 1.571-.508 2.495-.05.176.088.334.207.473.346l2.843 2.843c.1.1.19.21.261.331.568.98.604 1.964.03 2.538l-1.105 1.073a.25.25 0 0 1-.353 0l-5.678-5.677a.25.25 0 0 1 0-.354z"/><path fill="url(#i)" d="M2.74 11.281c.714-.713 1.571-.508 2.495-.05.176.088.334.207.473.346l2.843 2.843c.1.1.19.21.261.331.568.98.604 1.964.03 2.538l-1.105 1.073a.25.25 0 0 1-.353 0l-5.678-5.677a.25.25 0 0 1 0-.354z"/><path fill="url(#j)" d="M2.74 11.281c.714-.713 1.571-.508 2.495-.05.176.088.334.207.473.346l2.843 2.843c.1.1.19.21.261.331.568.98.604 1.964.03 2.538l-1.105 1.073a.25.25 0 0 1-.353 0l-5.678-5.677a.25.25 0 0 1 0-.354z"/><path fill="url(#k)" d="M2.74 11.281c.714-.713 1.571-.508 2.495-.05.176.088.334.207.473.346l2.843 2.843c.1.1.19.21.261.331.568.98.604 1.964.03 2.538l-1.105 1.073a.25.25 0 0 1-.353 0l-5.678-5.677a.25.25 0 0 1 0-.354z"/></g><g filter="url(#l)"><path fill="#CAC3DA" d="M13.16 7.167a.5.5 0 0 0 0 .707l2.141 2.14a.4.4 0 0 1 0 .566l-5.145 5.145a.4.4 0 0 1-.566 0l-4.64-4.64a.75.75 0 0 1 0-1.06l6.557-6.557a2 2 0 0 1 1.579-.58l3.148.26a.4.4 0 0 1 .25.68z"/></g><path fill="url(#m)" d="M13.16 7.167a.5.5 0 0 0 0 .707l2.141 2.14a.4.4 0 0 1 0 .566l-5.145 5.145a.4.4 0 0 1-.566 0l-4.64-4.64a.75.75 0 0 1 0-1.06l6.557-6.557a2 2 0 0 1 1.579-.58l3.148.26a.4.4 0 0 1 .25.68z"/><path fill="url(#n)" d="M13.16 7.167a.5.5 0 0 0 0 .707l2.141 2.14a.4.4 0 0 1 0 .566l-5.145 5.145a.4.4 0 0 1-.566 0l-4.64-4.64a.75.75 0 0 1 0-1.06l6.557-6.557a2 2 0 0 1 1.579-.58l3.148.26a.4.4 0 0 1 .25.68z"/><path fill="url(#o)" d="M13.16 7.167a.5.5 0 0 0 0 .707l2.141 2.14a.4.4 0 0 1 0 .566l-5.145 5.145a.4.4 0 0 1-.566 0l-4.64-4.64a.75.75 0 0 1 0-1.06l6.557-6.557a2 2 0 0 1 1.579-.58l3.148.26a.4.4 0 0 1 .25.68z"/><g filter="url(#p)"><path fill="url(#q)" d="M6.928 12.39h7.225v4.278H6.928z" transform="rotate(-45 6.928 12.39)"/><path fill="url(#r)" d="M6.928 12.39h7.225v4.278H6.928z" transform="rotate(-45 6.928 12.39)"/></g><defs><radialGradient id="f" cx="0" cy="0" r="1" gradientTransform="matrix(-1.78126 -1.28124 1.64014 -2.28022 28.662 26.406)" gradientUnits="userSpaceOnUse"><stop stop-color="#9B7775"/><stop offset="1" stop-color="#9B7775" stop-opacity="0"/></radialGradient><radialGradient id="h" cx="0" cy="0" r="1" gradientTransform="matrix(2.15627 -2.20266 2.20324 2.15683 5.444 16.334)" gradientUnits="userSpaceOnUse"><stop stop-color="#CABFDD"/><stop offset="1" stop-color="#CABFDD" stop-opacity="0"/></radialGradient><radialGradient id="i" cx="0" cy="0" r="1" gradientTransform="rotate(-47.332 20.26 2.453)scale(4.8875 11.3328)" gradientUnits="userSpaceOnUse"><stop offset=".599" stop-color="#BBB9C3" stop-opacity="0"/><stop offset=".776" stop-color="#8C889A"/></radialGradient><radialGradient id="j" cx="0" cy="0" r="1" gradientTransform="matrix(-1.25 1.4375 -4.40954 -3.83437 6.537 13.688)" gradientUnits="userSpaceOnUse"><stop stop-color="#DED9EA"/><stop offset="1" stop-color="#CAC1DC" stop-opacity="0"/></radialGradient><radialGradient id="k" cx="0" cy="0" r="1" gradientTransform="rotate(-177.818 3.99 6.676)scale(6.56726 8.47243)" gradientUnits="userSpaceOnUse"><stop offset=".547" stop-color="#8F8C98" stop-opacity="0"/><stop offset="1" stop-color="#8F8C98"/></radialGradient><radialGradient id="n" cx="0" cy="0" r="1" gradientTransform="rotate(136.759 7.278 5.026)scale(1.67855 .33786)" gradientUnits="userSpaceOnUse"><stop stop-color="#DFDDE8"/><stop offset="1" stop-color="#CCC9D6" stop-opacity="0"/></radialGradient><radialGradient id="o" cx="0" cy="0" r="1" gradientTransform="matrix(-3.49836 2.39699 -1.91507 -2.795 15.763 8.754)" gradientUnits="userSpaceOnUse"><stop offset=".201" stop-color="#ECEAF4"/><stop offset="1" stop-color="#ECEAF4" stop-opacity="0"/></radialGradient><linearGradient id="b" x1="30.506" x2="26.162" y1="27.688" y2="23.344" gradientUnits="userSpaceOnUse"><stop offset=".065" stop-color="#7F494F"/><stop offset="1" stop-color="#7F494F" stop-opacity="0"/></linearGradient><linearGradient id="c" x1="17.881" x2="21.444" y1="21.406" y2="17.719" gradientUnits="userSpaceOnUse"><stop offset=".058" stop-color="#733464"/><stop offset="1" stop-color="#7C425A" stop-opacity="0"/></linearGradient><linearGradient id="e" x1="17.85" x2="27.037" y1="17.125" y2="26.156" gradientUnits="userSpaceOnUse"><stop stop-color="#A77975"/><stop offset="1" stop-color="#8F6969"/></linearGradient><linearGradient id="m" x1="14.403" x2="14.306" y1="3.086" y2="4.316" gradientUnits="userSpaceOnUse"><stop stop-color="#CCCCD3"/><stop offset="1" stop-color="#CCCCD3" stop-opacity="0"/></linearGradient><linearGradient id="q" x1="14.111" x2="6.859" y1="15.388" y2="15.819" gradientUnits="userSpaceOnUse"><stop stop-color="#EDEAF7"/><stop offset="1" stop-color="#A89ABE"/></linearGradient><linearGradient id="r" x1="10.541" x2="10.563" y1="12.39" y2="13.672" gradientUnits="userSpaceOnUse"><stop offset=".111" stop-color="#B2ADC0"/><stop offset="1" stop-color="#B2ADC0" stop-opacity="0"/></linearGradient><filter id="a" width="21.374" height="21.523" x="8.049" y="8.311" color-interpolation-filters="sRGB" filterUnits="userSpaceOnUse"><feFlood flood-opacity="0" result="BackgroundImageFix"/><feBlend in="SourceGraphic" in2="BackgroundImageFix" result="shape"/><feColorMatrix in="SourceAlpha" result="hardAlpha" values="0 0 0 0 0 0 0 0 0 0 0 0 0 0 0 0 0 0 127 0"/><feOffset dy="-.15"/><feGaussianBlur stdDeviation=".15"/><feComposite in2="hardAlpha" k2="-1" k3="1" operator="arithmetic"/><feColorMatrix values="0 0 0 0 0.643137 0 0 0 0 0.384314 0 0 0 0 0.737255 0 0 0 1 0"/><feBlend in2="shape" result="effect1_innerShadow_18_23767"/></filter><filter id="d" width="18.428" height="18.428" x="10.938" y="9.411" color-interpolation-filters="sRGB" filterUnits="userSpaceOnUse"><feFlood flood-opacity="0" result="BackgroundImageFix"/><feBlend in="SourceGraphic" in2="BackgroundImageFix" result="shape"/><feGaussianBlur result="effect1_foregroundBlur_18_23767" stdDeviation=".5"/></filter><filter id="g" width="7.773" height="7.771" x="1.633" y="10.665" color-interpolation-filters="sRGB" filterUnits="userSpaceOnUse"><feFlood flood-opacity="0" result="BackgroundImageFix"/><feBlend in="SourceGraphic" in2="BackgroundImageFix" result="shape"/><feColorMatrix in="SourceAlpha" result="hardAlpha" values="0 0 0 0 0 0 0 0 0 0 0 0 0 0 0 0 0 0 127 0"/><feOffset dx=".15" dy="-.15"/><feGaussianBlur stdDeviation=".375"/><feComposite in2="hardAlpha" k2="-1" k3="1" operator="arithmetic"/><feColorMatrix values="0 0 0 0 0.552941 0 0 0 0 0.541176 0 0 0 0 0.592157 0 0 0 1 0"/><feBlend in2="shape" result="effect1_innerShadow_18_23767"/></filter><filter id="l" width="12.121" height="13.21" x="4.731" y="2.632" color-interpolation-filters="sRGB" filterUnits="userSpaceOnUse"><feFlood flood-opacity="0" result="BackgroundImageFix"/><feBlend in="SourceGraphic" in2="BackgroundImageFix" result="shape"/><feColorMatrix in="SourceAlpha" result="hardAlpha" values="0 0 0 0 0 0 0 0 0 0 0 0 0 0 0 0 0 0 127 0"/><feOffset dx=".25" dy="-.25"/><feGaussianBlur stdDeviation=".5"/><feComposite in2="hardAlpha" k2="-1" k3="1" operator="arithmetic"/><feColorMatrix values="0 0 0 0 0.537255 0 0 0 0 0.52549 0 0 0 0 0.596078 0 0 0 1 0"/><feBlend in2="shape" result="effect1_innerShadow_18_23767"/></filter><filter id="p" width="10.134" height="10.134" x="5.928" y="6.281" color-interpolation-filters="sRGB" filterUnits="userSpaceOnUse"><feFlood flood-opacity="0" result="BackgroundImageFix"/><feBlend in="SourceGraphic" in2="BackgroundImageFix" result="shape"/><feGaussianBlur result="effect1_foregroundBlur_18_23767" stdDeviation=".5"/></filter></defs></svg>
